packages/react/src/components/base/Icon/assets/icon-public-transportation.svg

<svg width="24" height="24" viewBox="0 0 24 24" xmlns="http://www.w3.org/2000/svg" fill="currentColor"> <g clip-path="url(#clip0_2076_2718)"> <path d="M14.3846 11.5536C13.2568 11.5536 12.3388 12.459 12.3388 13.5713V21.0364C12.3388 21.1031 12.3486 21.1679 12.3643 21.2298C12.3477 21.2917 12.3388 21.3565 12.3388 21.4233V22.6671C12.3388 23.3229 12.8792 23.8559 13.5441 23.8559H14.8053C15.4703 23.8559 16.0106 23.3229 16.0106 22.6671V21.8102H18.6468V22.6671C18.6468 23.3229 19.1871 23.8559 19.8521 23.8559H21.1133C21.7782 23.8559 22.3186 23.3229 22.3186 22.6671V21.4233C22.3186 21.3565 22.3088 21.2917 22.2931 21.2298C22.3097 21.1679 22.3186 21.1031 22.3186 21.0364V13.5713C22.3186 12.459 21.4006 11.5536 20.2728 11.5536H14.3846ZM13.908 20.2626V18.1647H20.7494V20.2626H13.908ZM13.908 15.2436H20.7494V16.6181H13.908V15.2436ZM20.2718 13.1012C20.5346 13.1012 20.7484 13.3121 20.7484 13.5713V13.696H13.907V13.5713C13.907 13.3121 14.1208 13.1012 14.3836 13.1012H20.2718ZM14.4415 22.3083H13.908V21.8102H14.4415V22.3083ZM20.2159 22.3083V21.8102H20.7494V22.3083H20.2159Z"/> <path d="M15.4359 18.6357C15.0878 18.6357 14.8053 18.9143 14.8053 19.2576C14.8053 19.601 15.0878 19.8796 15.4359 19.8796C15.7841 19.8796 16.0665 19.601 16.0665 19.2576C16.0665 18.9143 15.7841 18.6357 15.4359 18.6357Z"/> <path d="M19.2205 18.6357C18.8723 18.6357 18.5899 18.9143 18.5899 19.2576C18.5899 19.601 18.8723 19.8796 19.2205 19.8796C19.5686 19.8796 19.8511 19.601 19.8511 19.2576C19.8511 18.9143 19.5686 18.6357 19.2205 18.6357Z"/> <path d="M23.2159 14.7503C22.7824 14.7503 22.4313 15.0966 22.4313 15.5241V16.768C22.4313 17.1955 22.7824 17.5418 23.2159 17.5418C23.6494 17.5418 24.0005 17.1955 24.0005 16.768V15.5241C24.0005 15.0966 23.6494 14.7503 23.2159 14.7503Z"/> <path d="M11.4415 14.7503C11.008 14.7503 10.6569 15.0966 10.6569 15.5241V16.768C10.6569 17.1955 11.008 17.5418 11.4415 17.5418C11.875 17.5418 12.2261 17.1955 12.2261 16.768V15.5241C12.2261 15.0966 11.875 14.7503 11.4415 14.7503Z"/> <path d="M2.04625 11.4762C0.918435 11.4762 0.000488281 12.3816 0.000488281 13.4939V20.1301C0.000488281 21.1911 0.836055 22.0617 1.89228 22.14L1.41958 22.7619C1.15969 23.1034 1.22932 23.5889 1.57649 23.8452C1.71772 23.9497 1.88248 24 2.04625 24C2.28457 24 2.51994 23.8936 2.67489 23.6905L3.84782 22.1477H6.13386L7.3068 23.6905C7.46077 23.8936 7.69614 24 7.93543 24C8.09921 24 8.26495 23.9497 8.4052 23.8452C8.75237 23.5889 8.822 23.1034 8.56211 22.7619L8.08941 22.14C9.14563 22.0617 9.9812 21.1911 9.9812 20.1301V13.4939C9.9812 12.3816 9.06325 11.4762 7.93543 11.4762H2.04625ZM1.56865 16.4527V15.0966H4.2048V16.4527H1.56865ZM5.77394 15.0976H8.4101V16.4536H5.77394V15.0976ZM7.93347 13.0238C8.1963 13.0238 8.4101 13.2347 8.4101 13.4939V13.55H1.56865V13.4939C1.56865 13.2347 1.78244 13.0238 2.04527 13.0238H7.93347ZM2.04625 20.6002C1.78342 20.6002 1.56963 20.3893 1.56963 20.1301V18.0002H8.41108V20.1301C8.41108 20.3893 8.19728 20.6002 7.93445 20.6002H2.04625Z"/> <path d="M2.67685 18.8862C2.3287 18.8862 2.04625 19.1648 2.04625 19.5082C2.04625 19.8515 2.3287 20.1301 2.67685 20.1301C3.02501 20.1301 3.30745 19.8515 3.30745 19.5082C3.30745 19.1648 3.02501 18.8862 2.67685 18.8862Z"/> <path d="M7.30288 18.8862C6.95472 18.8862 6.67228 19.1648 6.67228 19.5082C6.67228 19.8515 6.95472 20.1301 7.30288 20.1301C7.65103 20.1301 7.93347 19.8515 7.93347 19.5082C7.93347 19.1648 7.65103 18.8862 7.30288 18.8862Z"/> <path d="M3.46437 9.65784C3.92726 9.65784 4.1234 9.77004 4.41958 9.94027C4.80206 10.1598 5.27672 10.4316 6.16329 10.4316C7.04985 10.4316 7.52452 10.1589 7.90699 9.94027C8.20317 9.77004 8.39833 9.65784 8.86221 9.65784C9.32609 9.65784 9.52125 9.77004 9.81742 9.94027C10.1999 10.1598 10.6746 10.4316 11.5611 10.4316C12.4477 10.4316 12.9224 10.1589 13.3048 9.94027C13.601 9.77004 13.7962 9.65784 14.2601 9.65784C14.7239 9.65784 14.9191 9.77004 15.2153 9.94027C15.5977 10.1598 16.0724 10.4316 16.959 10.4316C17.8455 10.4316 18.3202 10.1589 18.7027 9.94027C18.9989 9.77004 19.195 9.65784 19.6579 9.65784C20.0914 9.65784 20.4425 9.31157 20.4425 8.88405C20.4425 8.45653 20.0914 8.11026 19.6579 8.11026C18.7713 8.11026 18.2957 8.38302 17.9142 8.60162C17.7887 8.67319 17.6818 8.7351 17.5641 8.78249C17.6661 8.45653 17.718 8.1209 17.718 7.7785V6.34313C17.718 5.82082 17.3807 5.35945 16.8786 5.19405L16.3872 5.03252V2.52545C16.3872 1.85709 15.8361 1.3135 15.1584 1.3135H12.3918V0.773788C12.3918 0.34627 12.0407 0 11.6072 0C11.1737 0 10.8227 0.34627 10.8227 0.773788V1.3135H8.05606C7.37839 1.3135 6.82723 1.85709 6.82723 2.52545V5.03252L6.33491 5.19405C5.83279 5.35945 5.49542 5.82082 5.49542 6.34313V7.7785C5.49542 8.13348 5.55132 8.48071 5.66116 8.81925C5.50131 8.76992 5.36989 8.69447 5.20905 8.60259C4.82658 8.38302 4.35191 8.11123 3.46535 8.11123C3.03187 8.11123 2.68078 8.4575 2.68078 8.88502C2.68078 9.31254 3.03187 9.65881 3.46535 9.65881L3.46437 9.65784ZM8.86123 8.11026C8.05802 8.11026 7.59316 8.3337 7.22834 8.53875C7.1185 8.29114 7.0626 8.03966 7.0626 7.77753V6.58397L10.8197 5.34881V8.65288C10.8197 8.6761 10.8217 8.69931 10.8236 8.72156C10.753 8.68577 10.6824 8.64514 10.6049 8.60065C10.2225 8.38109 9.74779 8.1093 8.86123 8.1093V8.11026ZM14.2581 8.11026C13.3715 8.11026 12.8969 8.38302 12.5144 8.60162C12.4703 8.62677 12.4291 8.65095 12.3879 8.67319C12.3879 8.66642 12.3889 8.66062 12.3889 8.65385V5.34978L16.146 6.58493V7.7785C16.146 8.05416 16.0842 8.31919 15.9616 8.58034C15.586 8.36561 15.1133 8.11123 14.2571 8.11123L14.2581 8.11026ZM8.39441 2.86108H14.8151V4.51602L11.8534 3.54201C11.8534 3.54201 11.8514 3.54201 11.8495 3.54201C11.8142 3.53041 11.7769 3.5217 11.7396 3.51493C11.7328 3.51396 11.7249 3.513 11.718 3.51203C11.6808 3.50719 11.6435 3.50332 11.6062 3.50332H11.6043C11.566 3.50332 11.5288 3.50719 11.4925 3.51203C11.4856 3.513 11.4778 3.51396 11.4709 3.51493C11.4336 3.5217 11.3964 3.53041 11.3611 3.54201C11.3601 3.54201 11.3591 3.54201 11.3571 3.54201L8.39539 4.51602V2.86108H8.39441Z"/> </g> <defs> <clipPath id="clip0_2076_2718"> <rect width="24" height="24"/> </clipPath> </defs> </svg>

<svg viewBox="0 0 24 24" xmlns="http://www.w3.org/2000/svg" aria-hidden="true" fill="currentColor"><g clip-path="url(#a)"><path d="M14.385 11.554c-1.128 0-2.046.905-2.046 2.017v7.465q.001.1.025.194a.8.8 0 0 0-.025.193v1.244c0 .656.54 1.189 1.205 1.189h1.261c.665 0 1.206-.533 1.206-1.189v-.857h2.636v.857c0 .656.54 1.189 1.205 1.189h1.261c.665 0 1.206-.533 1.206-1.189v-1.244a.8.8 0 0 0-.026-.193.8.8 0 0 0 .026-.194v-7.465c0-1.112-.918-2.017-2.046-2.017zm-.477 8.709v-2.098h6.841v2.098zm0-5.02h6.841v1.375h-6.841zm6.364-2.142c.263 0 .476.211.476.47v.125h-6.841v-.125c0-.259.214-.47.477-.47zm-5.83 9.207h-.534v-.498h.534zm5.774 0v-.498h.533v.498z"/><path d="M15.436 18.636a.627.627 0 0 0-.63.622c0 .343.282.622.63.622s.63-.279.63-.622a.626.626 0 0 0-.63-.622m3.785 0a.626.626 0 0 0-.631.622c0 .343.282.622.63.622s.631-.279.631-.622a.627.627 0 0 0-.63-.622m3.995-3.886a.78.78 0 0 0-.785.774v1.244a.78.78 0 0 0 .785.774.78.78 0 0 0 .784-.774v-1.244a.78.78 0 0 0-.784-.774m-11.775 0a.78.78 0 0 0-.784.774v1.244a.78.78 0 0 0 .784.774.78.78 0 0 0 .785-.774v-1.244a.78.78 0 0 0-.785-.774m-9.395-3.274C.918 11.476 0 12.382 0 13.494v6.636c0 1.061.836 1.932 1.892 2.01l-.472.622a.766.766 0 0 0 .156 1.083.788.788 0 0 0 1.098-.155l1.174-1.542h2.286l1.173 1.543c.154.203.39.309.628.309.164 0 .33-.05.47-.155a.766.766 0 0 0 .157-1.083l-.473-.622c1.057-.078 1.892-.949 1.892-2.01v-6.636c0-1.112-.918-2.018-2.046-2.018zm-.477 4.977v-1.356h2.636v1.356zm4.205-1.355H8.41v1.356H5.774zm2.16-2.074c.262 0 .476.21.476.47v.056H1.57v-.056c0-.26.213-.47.476-.47zM2.045 20.6a.474.474 0 0 1-.476-.47V18H8.41v2.13c0 .26-.214.47-.477.47z"/><path d="M2.677 18.886a.626.626 0 0 0-.63.622c0 .344.282.622.63.622s.63-.278.63-.622a.626.626 0 0 0-.63-.622m4.626 0a.626.626 0 0 0-.63.622c0 .344.282.622.63.622s.63-.278.63-.622a.626.626 0 0 0-.63-.622M3.464 9.658c.463 0 .66.112.956.282.382.22.857.492 1.743.492s1.362-.273 1.744-.492c.296-.17.491-.282.955-.282s.66.112.955.282c.383.22.858.492 1.744.492.887 0 1.361-.273 1.744-.492.296-.17.491-.282.955-.282s.66.112.955.282c.383.22.857.492 1.744.492s1.361-.273 1.744-.492c.296-.17.492-.282.955-.282a.78.78 0 0 0 .784-.774.78.78 0 0 0-.784-.774c-.887 0-1.362.273-1.744.492-.125.071-.232.133-.35.18q.154-.489.154-1.003V6.343c0-.522-.337-.984-.84-1.149l-.49-.161V2.525c0-.668-.552-1.211-1.23-1.211h-2.766v-.54A.78.78 0 0 0 11.607 0a.78.78 0 0 0-.784.774v.54H8.056c-.678 0-1.229.543-1.229 1.211v2.508l-.492.161c-.502.165-.84.627-.84 1.15v1.435q0 .532.166 1.04c-.16-.05-.291-.125-.452-.216-.382-.22-.857-.492-1.744-.492a.78.78 0 0 0-.784.774c0 .428.35.774.784.774zM8.861 8.11c-.803 0-1.268.224-1.633.429q-.165-.37-.165-.761V6.584l3.757-1.235v3.304q0 .034.004.069-.105-.055-.22-.121c-.381-.22-.856-.492-1.743-.492zm5.397 0c-.886 0-1.361.273-1.744.492l-.126.071V5.35l3.758 1.235v1.194q0 .411-.184.801c-.376-.214-.849-.469-1.705-.469zM8.394 2.861h6.421v1.655l-2.962-.974h-.003a1 1 0 0 0-.11-.027l-.022-.003a1 1 0 0 0-.112-.009h-.002a1 1 0 0 0-.111.009l-.022.003a1 1 0 0 0-.11.027h-.004l-2.962.974V2.861"/></g><defs><clipPath id="a"><path d="M0 0h24v24H0z"/></clipPath></defs></svg>
